!!!COM: Lassus, Orlandus
!!!OPR: Novae aliquot et ante hac non ita usitatae cantiones suavissimae
!!!ONM: 11
!!!OTL@@LA: Fulgebunt justi
**kern	**text	**kern	**text
*staff2	*staff2	*staff1	*staff1
*I"Bassus	*	*I"Tenor	*
*I'B	*	*I'T	*
*clefF4	*	*clefC4	*
*mclefF4	*	*mclefGv2	*
*k[]	*	*k[]	*
*G:mix	*	*G:mix	*
*M2/1	*	*M2/1	*
*met(C|)	*	*met(C|)	*
*MM180	*	*MM180	*
=1	=1	=1	=1
0r	.	1d	Ful-
.	.	2B	-ge-
.	.	2B	-bunt
=2	=2	=2	=2
1G	Ful-	4d	ju-
.	.	4c	.
.	.	4B	.
.	.	4A	.
2E	-ge-	4G	.
.	.	4A	.
2E	-bunt	4B	.
.	.	4c	.
=3	=3	=3	=3
4G	ju-	1B	.
4F	.	.	.
4E	.	.	.
4D	.	.	.
4C	.	2E	-sti
4D	.	.	.
4E	.	1c	sic-
4F	.	.	.
=4	=4	=4	=4
1E	.	.	.
.	.	2B	-ut
2AA	-sti	2c	li-
1C	sic-	2c	-li-
=5	=5	=5	=5
.	.	0G	-um,
2BB	-ut	.	.
2C	li-	.	.
2C	-li-	.	.
=6	=6	=6	=6
0GG	um,	2r	.
.	.	2d	ful-
.	.	2B	-ge-
.	.	2B	-bunt
=7	=7	=7	=7
2r	.	4G	ju-
.	.	4F	.
2G	ful-	4E	.
.	.	4D	.
2E	-ge-	2.C	.
2E	-bunt	.	.
.	.	4D	.
=8	=8	=8	=8
4G	ju-	4E	.
4F	.	4F	.
4E	.	2G.	.
4D	.	.	.
2.C	.	.	.
.	.	4E	.
.	.	2e.	.
4D	.	.	.
=9	=9	=9	=9
4E	.	.	.
4F	.	8dL	.
.	.	8cJ	.
2G.	.	4B	.
.	.	4c	.
.	.	1d	.
8FL	.	.	.
8EJ	.	.	.
4D	.	.	.
4E	.	.	.
=10	=10	=10	=10
4F	.	2A	-sti
4D	.	.	.
4E	.	1c	sic-
4F	.	.	.
1D	.	.	.
.	.	2B	-ut
=11	=11	=11	=11
2AA	-sti	2c	li-
1C	sic-	2c	-li-
.	.	1G	-um,
2BB	-ut	.	.
=12	=12	=12	=12
2C	li-	2r	.
2C	-li-	2G	et
1GG	-um,	2B	sic-
.	.	2B	-ut
=13	=13	=13	=13
2r	.	2.e	ro-
2C	et	.	.
.	.	4d	.
2E	sic-	2c	.
2E	-ut	2B	-sa
=14	=14	=14	=14
2.A	ro-	2r	.
.	.	2c	in
4G	.	.	.
2F	.	2.c	Je-
2E	-sa	.	.
.	.	4c	-ri-
=15	=15	=15	=15
2r	.	1A	-cho
2F	in	.	.
2.F	Je-	2r	.
.	.	2D	flo-
4F	-ri-	.	.
=16	=16	=16	=16
1D	-cho	4F	-re-
.	.	4G	.
.	.	4A	.
.	.	4B	.
2r	.	1c	.
2AA	flo-	.	.
=17	=17	=17	=17
4C	-re-	1G	-bunt,
4D	.	.	.
4E	.	.	.
4F	.	.	.
1G	.	2r	.
.	.	2d	flo-
=18	=18	=18	=18
1GG	-bunt,	4B	-re-
.	.	4A	.
.	.	4G	.
.	.	4F	.
2r	.	1E	.
2AA	flo-	.	.
=19	=19	=19	=19
4FF	-re-	1A	-bunt,
4GG	.	.	.
4AA	.	.	.
4BB	.	.	.
1C.	.	2r	.
.	.	2E	flo-
=20	=20	=20	=20
.	.	4G	-re-
.	.	4A	.
2GG	-bunt,	4B	.
.	.	4c	.
2r	.	1d	.
2G	flo-	.	.
=21	=21	=21	=21
4E	-re-	1G	-bunt
4D	.	.	.
4C	.	.	.
4BB	.	.	.
1AA	.	2r	.
.	.	2c.	an-
=22	=22	=22	=22
1E	-bunt	.	.
.	.	8BL	.
.	.	8AJ	.
.	.	4G	.
.	.	4A	.
2r	.	1B	.
2E.	an-	.	.
=23	=23	=23	=23
.	.	2c	-te
8DL	.	.	.
8CJ	.	.	.
4BB	.	2d.	Do-
4C	.	.	.
1D	.	.	.
.	.	8cL	.
.	.	8BJ	.
.	.	4A	.
.	.	4B	.
=24	=24	=24	=24
2AA	-te	2.c	.
2A.	Do-	.	.
.	.	4d	.
.	.	2e	.
8GL	.	.	.
8FJ	.	.	.
4E	.	2c	-mi-
4F	.	.	.
=25	=25	=25	=25
2G	.	1B	-num,
2E	-mi-	.	.
2.A	-num,	2r	.
.	.	2c.	an-
8GL	.	.	.
8FJ	.	.	.
=26	=26	=26	=26
1E	.	.	.
.	.	8BL	.
.	.	8AJ	.
.	.	4G	.
.	.	4A	.
2r	.	2B	.
2C.	an-	4E	-te
.	.	4F	.
=27	=27	=27	=27
.	.	4G	.
8BBL	.	4A	.
8AAJ	.	.	.
4GG	.	4B	.
4AA	.	4c	.
2BB	.	2d	.
2C	-te	2G.	Do-
=28	=28	=28	=28
2.D	Do-	.	.
.	.	4F	.
.	.	4F	.
8CL	.	8EL	.
8BBJ	.	8DJ	.
4AA	.	2F	.
4BB	.	.	.
2C.	.	2E	-mi-
=29	=29	=29	=29
.	.	1G	-num,
4D	.	.	.
4E	.	.	.
4F	.	.	.
2G	.	2r	.
2F	-mi-	2c.	an-
=30	=30	=30	=30
1E	-num,	.	.
.	.	8BL	.
.	.	8AJ	.
.	.	4G	.
.	.	4A	.
2r	.	2B	.
2A.	an-	2c	-te
=31	=31	=31	=31
.	.	2.e	Do-
8GL	.	.	.
8FJ	.	.	.
4E	.	.	.
4F	.	8dL	.
.	.	8cJ	.
2.G	.	4B	.
.	.	4c	.
.	.	2d.	.
8FL	.	.	.
8EJ	.	.	.
=32	=32	=32	=32
4D	.	.	.
4E	.	8cL	.
.	.	8BJ	.
1F	.	4A	.
.	.	4B	.
.	.	2.c	.
2E	-te	.	.
.	.	4B	.
=33	=33	=33	=33
4C	Do-	4A	.
4BB	.	4D	.
4BB	.	1G	.
8AAL	.	.	.
8GGJ	.	.	.
2.AA	.	.	.
.	.	2Fi#	-mi-
4AA	-mi-	.	.
=34	=34	=34	=34
2E	-num,	[0G	-num.
2C.	an-	.	.
.	.	.	.
8BBL	.	.	.
8AAJ	.	.	.
4GG	.	.	.
4AA	.	.	.
=35	=35	=35	=35
2BB	.	0G_	.
2C	-te	.	.
2E	Do-	.	.
2C	-mi-	.	.
=36	=36	=36	=36
0GG	-num.	0G]	.
==	==	==	==
*-	*-	*-	*-
!!!RDF**kern: l = terminal long
!!!RDF**kern: i = editorial accidental
!!!PDT: 1590
!!!PED: Adam Berg
!!!AGN: Motet; Bicinium
!!!YOR: https://mdz-nbn-resolving.de/details:bsb00090897
!!!YOO: München, Bayerische Staatsbibliothek
!!!URL-scan: https://www.digitale-sammlungen.de/view/bsb00090897?page=14 Tenor
!!!URL-scan: https://www.digitale-sammlungen.de/view/bsb00090897?page=54 Bassus
!!!IIIF: https://api.digitale-sammlungen.de/iiif/presentation/v2/bsb00090897/manifest
!!!EED: Mirko Sattig
!!!END: 2023/11/24
!!!ENC: Mirko Sattig
!!!EEV: 2024/02/12
!!!title: @{ONM}. @{OTL}
!!!system-decoration: [s1,s2]